X: 6932
T: Cherry Blossom, The
R: polka
M: 2/4
K: Dmajor
|:DF- FD|GB- Bc|d2 dc/d/|e/d/c/B/ AF/E/|
DF FE/D/|G/A/B/c/ d>c|dA c/d/e|df d2:|
|:dc/d/ eA|dc/d/ e2|de =fe|de/d/ _B2|
A=F d_B|A_B/A/ E2|AA/=F/ d_B|A=F E2:|

